storage/app/icons/phosphoricons/duotone/identification-badge-duotone.svg

<svg xmlns="http://www.w3.org/2000/svg" fill="currentColor" viewBox="0 0 256 256"><path d="M200 32H56a8 8 0 0 0-8 8v176a8 8 0 0 0 8 8h144a8 8 0 0 0 8-8V40a8 8 0 0 0-8-8m-72 136a32 32 0 1 1 32-32 32 32 0 0 1-32 32" opacity=".2"/><path d="M75.19 198.4a8 8 0 0 0 11.21-1.6 52 52 0 0 1 83.2 0 8 8 0 1 0 12.8-9.6 67.9 67.9 0 0 0-27.4-21.69 40 40 0 1 0-53.94 0A67.9 67.9 0 0 0 73.6 187.2a8 8 0 0 0 1.59 11.2M128 112a24 24 0 1 1-24 24 24 24 0 0 1 24-24m72-88H56a16 16 0 0 0-16 16v176a16 16 0 0 0 16 16h144a16 16 0 0 0 16-16V40a16 16 0 0 0-16-16m0 192H56V40h144ZM88 64a8 8 0 0 1 8-8h64a8 8 0 0 1 0 16H96a8 8 0 0 1-8-8"/></svg>

<svg xmlns="http://www.w3.org/2000/svg" viewBox="0 0 256 256" fill="currentColor"><path d="M200,32H56a8,8,0,0,0-8,8V216a8,8,0,0,0,8,8H200a8,8,0,0,0,8-8V40A8,8,0,0,0,200,32ZM128,168a32,32,0,1,1,32-32A32,32,0,0,1,128,168Z" opacity="0.2"/><path d="M75.19,198.4a8,8,0,0,0,11.21-1.6,52,52,0,0,1,83.2,0,8,8,0,1,0,12.8-9.6A67.88,67.88,0,0,0,155,165.51a40,40,0,1,0-53.94,0A67.88,67.88,0,0,0,73.6,187.2,8,8,0,0,0,75.19,198.4ZM128,112a24,24,0,1,1-24,24A24,24,0,0,1,128,112Zm72-88H56A16,16,0,0,0,40,40V216a16,16,0,0,0,16,16H200a16,16,0,0,0,16-16V40A16,16,0,0,0,200,24Zm0,192H56V40H200ZM88,64a8,8,0,0,1,8-8h64a8,8,0,0,1,0,16H96A8,8,0,0,1,88,64Z"/></svg>
